!! 00000] TT[WS
!!!OTL: Jian lantan
!!!ARE: Asia, China, Shanxi Jingzhong
!! Ethnic Group: Han
!! WII, 173 (1)
!!!SCT: J0660
!!!YEM: Copyright 1995, estate of Helmut Schaffrath.
**kern
*ICvox
*Ivox
*M2/4
*k[b-]
*F:
{8dd
16dd
16ee
8dd
16cc
16dd
=1
8ff
16ee
16dd
8cc
8a
=2
8cc
16a
16cc
16dd
16ee
16dd
16cc
=3
16a
16g
16f
16d
4g}
=4
{8cc
16cc
16a
16a
16ff
16ee
16dd
=5
16dd
16a
16cc
16dd
8f
16e
16d
=6
8cc
16cc
16a
16cc
16a
16g
16f
=7
16g
8d
16e
4d}
==
!!!AGN: Xiaodiao, Qingge
!!!ONB: ESAC (Essen Associative Code) Database: CHINA
!!!AMT: simple duple
!!!AIN: vox
!!!EED: Helmut Schaffrath
!!!EEV: 1.0
*-
